icons/gluten.svg

<svg width="48" height="48" viewBox="0 0 48 48" fill="none" xmlns="http://www.w3.org/2000/svg">
<path fill-rule="evenodd" clip-rule="evenodd" d="M23 8.62981L22.6094 9.08547C21.4234 10.4692 20.7779 12.2042 20.7409 13.9795C20.6588 13.9446 20.5758 13.9112 20.492 13.8792L19 13.3109V6H17V15.5794C17 16.4658 17.1671 17.3242 17.4764 18.1184L17.4173 18.0912C17.1077 17.9491 16.747 17.9743 16.4602 18.1582C16.1734 18.3421 16 18.6593 16 19V20.9385C16 22.0358 16.2564 23.0927 16.724 24.0388C16.6319 24.0653 16.543 24.1051 16.4602 24.1582C16.1734 24.3421 16 24.6593 16 25V26.9385C16 28.0358 16.2564 29.0927 16.724 30.0388C16.6319 30.0653 16.543 30.1051 16.4602 30.1582C16.1734 30.3421 16 30.6593 16 31V32.9385C16 35.6738 17.5932 38.1585 20.0789 39.2999L23 40.6412V44H25V40.6412L27.9211 39.2999C30.4068 38.1585 32 35.6738 32 32.9385V31C32 30.6593 31.8266 30.3421 31.5398 30.1582C31.457 30.1051 31.3681 30.0653 31.276 30.0388C31.7436 29.0927 32 28.0358 32 26.9385V25C32 24.6593 31.8266 24.3421 31.5398 24.1582C31.457 24.1051 31.3681 24.0653 31.276 24.0388C31.7436 23.0927 32 22.0358 32 20.9385V19C32 18.6593 31.8266 18.3421 31.5398 18.1582C31.253 17.9743 30.8923 17.9491 30.5827 18.0912L30.5236 18.1184C30.7837 17.4505 30.9433 16.7372 30.9874 16H31V6H29V13.3109L27.508 13.8792C27.424 13.9112 27.3408 13.9448 27.2586 13.9797C27.2216 12.2043 26.5762 10.4692 25.3901 9.08547L25 8.63035V4H23V8.62981ZM25.1208 15.401C25.5024 13.6979 25.0918 11.9095 23.9998 10.542C22.9079 11.9093 22.4973 13.6975 22.8786 15.4004C23.3126 15.8224 23.6893 16.2982 24 16.815C24.3105 16.2985 24.6871 15.8228 25.1208 15.401ZM19.78 15.7482C21.7188 16.4868 23 18.3459 23 20.4206V20.5489L22.22 20.2518C20.2812 19.5132 19 17.6541 19 15.5794V15.4511L19.78 15.7482ZM28.22 15.7482L29 15.4511V15.5794C29 17.6541 27.7188 19.5132 25.78 20.2518L25 20.5489V20.4206C25 18.3459 26.2812 16.4868 28.22 15.7482ZM23 26.4404V26.0615C23 24.1077 21.862 22.3329 20.0865 21.5176L18 20.5596V20.9385C18 22.8923 19.138 24.6671 20.9135 25.4824L23 26.4404ZM25 26.4404L27.0865 25.4824C28.862 24.6671 30 22.8923 30 20.9385V20.5596L27.0462 21.9159C25.7992 22.4885 25 23.735 25 25.1071V26.4404ZM20.0865 27.5176C21.862 28.3329 23 30.1077 23 32.0615V32.4404L20.9135 31.4824C19.138 30.6671 18 28.8923 18 26.9385V26.5596L20.0865 27.5176ZM27.0865 31.4824L25 32.4404V31.1071C25 29.735 25.7992 28.4885 27.0462 27.9159L30 26.5596V26.9385C30 28.8923 28.862 30.6671 27.0865 31.4824ZM23 38.4404V38.0615C23 36.1077 21.862 34.3329 20.0865 33.5176L18 32.5596V32.9385C18 34.8923 19.138 36.6671 20.9135 37.4824L23 38.4404ZM25 38.4404L27.0865 37.4824C28.862 36.6671 30 34.8923 30 32.9385V32.5596L27.9135 33.5176C26.138 34.3329 25 36.1077 25 38.0615V38.4404Z" fill="black"/>
</svg>

<svg
  xmlns="http://www.w3.org/2000/svg"
  width="24"
  height="24"
  viewBox="0 0 24 24"
  fill="none"
  stroke="currentColor"
  stroke-width="2"
  stroke-linecap="round"
  stroke-linejoin="round"
>
  <path
    fill-rule="evenodd"
    d="m23 8.63-.39.455a7.77 7.77 0 0 0-1.87 4.894 7 7 0 0 0-.248-.1L19 13.311V6h-2v9.58c0 .886.167 1.744.476 2.538l-.059-.027A1 1 0 0 0 16 19v1.939a7 7 0 0 0 .724 3.1A1 1 0 0 0 16 25v1.939a7 7 0 0 0 .724 3.1A1 1 0 0 0 16 31v1.938a7 7 0 0 0 4.079 6.362L23 40.64V44h2v-3.359l2.921-1.341A7 7 0 0 0 32 32.939V31a1 1 0 0 0-.724-.961 7 7 0 0 0 .724-3.1V25a1 1 0 0 0-.724-.961 7 7 0 0 0 .724-3.1V19a1 1 0 0 0-1.417-.909l-.06.027c.26-.667.42-1.38.464-2.118H31V6h-2v7.31l-1.492.57a7 7 0 0 0-.25.1 7.77 7.77 0 0 0-1.868-4.895L25 8.63V4h-2zm2.12 6.771A5.77 5.77 0 0 0 24 10.542a5.77 5.77 0 0 0-1.121 4.858c.434.422.81.898 1.121 1.415.31-.517.687-.992 1.12-1.414m-5.34.347A5 5 0 0 1 23 20.421v.128l-.78-.297A5 5 0 0 1 19 15.579v-.128zm8.44 0 .78-.297v.128a5 5 0 0 1-3.22 4.673l-.78.297v-.128a5 5 0 0 1 3.22-4.673M23 26.44v-.379a5 5 0 0 0-2.913-4.543L18 20.56v.379a5 5 0 0 0 2.913 4.543zm2 0 2.087-.958A5 5 0 0 0 30 20.94v-.38l-2.954 1.357A3.51 3.51 0 0 0 25 25.107zm-4.913 1.078A5 5 0 0 1 23 32.062v.378l-2.087-.958A5 5 0 0 1 18 26.94v-.38zm7 3.964L25 32.44v-1.333c0-1.372.8-2.619 2.046-3.191L30 26.56v.379a5 5 0 0 1-2.913 4.543M23 38.44v-.378a5 5 0 0 0-2.913-4.544L18 32.56v.378a5 5 0 0 0 2.913 4.544zm2 0 2.087-.958A5 5 0 0 0 30 32.938v-.378l-2.087.958A5 5 0 0 0 25 38.062z"
    clip-rule="evenodd"
  />
</svg>
